icons/filter.svg

<?xml version="1.0" encoding="UTF-8"?>
<svg width="50" height="50" version="1.1" viewBox="0 0 50 50" xmlns="http://www.w3.org/2000/svg">
<path d="m41.25 5c3.75 0 3.75 2.5 3.75 3.75s-1.25 2.5-1.25 2.5l-13.75 13.75v17.639c0-0.13914 0 2.3609-2.5 2.3609-1.25 0-2.5-1.25-2.5-1.25l-3.75-3.75s-1.25-1.25-1.25-2.5v-12.5l-13.75-13.75s-1.25-1.25-1.25-2.5 0-3.75 3.75-3.75z"/>
</svg>

<?xml version="1.0" encoding="UTF-8" standalone="no"?>
<svg
   xmlns:dc="http://purl.org/dc/elements/1.1/"
   xmlns:cc="http://creativecommons.org/ns#"
   xmlns:rdf="http://www.w3.org/1999/02/22-rdf-syntax-ns#"
   xmlns:svg="http://www.w3.org/2000/svg"
   xmlns="http://www.w3.org/2000/svg"
   id="svg4"
   viewBox="0 0 50 50"
   version="1.1"
   width="50"
   height="50">
  <metadata
     id="metadata10">
    <rdf:RDF>
      <cc:Work
         rdf:about="">
        <dc:format>image/svg+xml</dc:format>
        <dc:type
           rdf:resource="http://purl.org/dc/dcmitype/StillImage" />
        <dc:title></dc:title>
      </cc:Work>
    </rdf:RDF>
  </metadata>
  <defs
     id="defs8" />
  <path
     id="path1541"
     d="M 41.25,5 C 45,5 45,7.5 45,8.75 c 0,1.25 -1.25,2.5 -1.25,2.5 L 30,25 V 42.639138 C 30,42.5 30,45 27.5,45 26.25,45 25,43.75 25,43.75 L 21.25,40 C 21.25,40 20,38.75 20,37.5 V 25 L 6.25,11.25 C 6.25,11.25 5,10 5,8.75 5,7.5 5,5 8.75,5 Z" />
</svg>
